X:1
T:Bright Shades of Blue
N: from the playing of Sally Sloane
Z:Ian Hayden, 2017
L:1/8
M:3/4
K:Cmaj
ef|g2 e2 c2|a2 g2 cd|e2 c2 ~A2|G4 AG|\
E2 G2 c2|g4 fe|d2 f2 e2|d4 ef|
|g2 e2 c2|a2 g2 ed|e2 c2 A2|G4 AG|\
E2 G2 e2|gg g2 ec|d2 e2 d2|c4z2|]
